X:1
T:Vilhelminapolska
R:Polska
O:Vilhelmina, Lappland
M:3/4
L:1/16
Z: till abc Eva Zwahlen 2017-05-10
K:G
|:"_G" G,2B,D G4 Bdg2 | b3a g4 B2d2 |"_D7" c2Ac "_G" B4 G2B2 | "_D7"A3F D8 |"_G" G,2B,D G4 Bdg2 | b3a g4 B2d2 |"_D7"(3cdcAc "_G" B4 G2B2 |"_D7" A3F "_G"G8|"_D7" c3A F4 D2F2 |"_G" G2Bd g4 b4 |"_C" a3g e4 c2e2 | (3gage2 "_G" d8 | "_D7" c3A F4 D2F2 |"_G" G2Bd g4 d2B2 |"_D7" c2ec A2cA F2AF | DFAF "_G" G8  :|

